dist/assets/img/icon/date.svg

<svg width="16" height="18" viewBox="0 0 16 18" fill="none" xmlns="http://www.w3.org/2000/svg">
<path fill-rule="evenodd" clip-rule="evenodd" d="M2.75 3.75C2.33579 3.75 2 4.08579 2 4.5V15C2 15.4142 2.33579 15.75 2.75 15.75H13.25C13.6642 15.75 14 15.4142 14 15V4.5C14 4.08579 13.6642 3.75 13.25 3.75H2.75ZM0.5 4.5C0.5 3.25736 1.50736 2.25 2.75 2.25H13.25C14.4926 2.25 15.5 3.25736 15.5 4.5V15C15.5 16.2426 14.4926 17.25 13.25 17.25H2.75C1.50736 17.25 0.5 16.2426 0.5 15V4.5Z" fill="#333333"/>
<path fill-rule="evenodd" clip-rule="evenodd" d="M11 0.75C11.4142 0.75 11.75 1.08579 11.75 1.5V4.5C11.75 4.91421 11.4142 5.25 11 5.25C10.5858 5.25 10.25 4.91421 10.25 4.5V1.5C10.25 1.08579 10.5858 0.75 11 0.75Z" fill="#333333"/>
<path fill-rule="evenodd" clip-rule="evenodd" d="M5 0.75C5.41421 0.75 5.75 1.08579 5.75 1.5V4.5C5.75 4.91421 5.41421 5.25 5 5.25C4.58579 5.25 4.25 4.91421 4.25 4.5V1.5C4.25 1.08579 4.58579 0.75 5 0.75Z" fill="#333333"/>
<path fill-rule="evenodd" clip-rule="evenodd" d="M0.5 7.5C0.5 7.08579 0.835786 6.75 1.25 6.75H14.75C15.1642 6.75 15.5 7.08579 15.5 7.5C15.5 7.91421 15.1642 8.25 14.75 8.25H1.25C0.835786 8.25 0.5 7.91421 0.5 7.5Z" fill="#333333"/>
</svg>

<svg width="16" height="18" fill="none" xmlns="http://www.w3.org/2000/svg"><path fill-rule="evenodd" clip-rule="evenodd" d="M2.75 3.75A.75.75 0 002 4.5V15c0 .414.336.75.75.75h10.5A.75.75 0 0014 15V4.5a.75.75 0 00-.75-.75H2.75zM.5 4.5a2.25 2.25 0 012.25-2.25h10.5A2.25 2.25 0 0115.5 4.5V15a2.25 2.25 0 01-2.25 2.25H2.75A2.25 2.25 0 01.5 15V4.5z" fill="#333"/><path fill-rule="evenodd" clip-rule="evenodd" d="M11 .75a.75.75 0 01.75.75v3a.75.75 0 01-1.5 0v-3A.75.75 0 0111 .75zM5 .75a.75.75 0 01.75.75v3a.75.75 0 01-1.5 0v-3A.75.75 0 015 .75zM.5 7.5a.75.75 0 01.75-.75h13.5a.75.75 0 010 1.5H1.25A.75.75 0 01.5 7.5z" fill="#333"/></svg>
